svgs/regular/ticket-airline.svg

<svg xmlns="http://www.w3.org/2000/svg" viewBox="0 0 640 512"><!--! Font Awesome Pro 6.3.0 by @fontawesome - https://fontawesome.com License - https://fontawesome.com/license (Commercial License) Copyright 2023 Fonticons, Inc. --><path d="M64 112c-8.8 0-16 7.2-16 16V384c0 8.8 7.2 16 16 16H576c8.8 0 16-7.2 16-16V349c-41.4-10.7-72-48.2-72-93s30.6-82.3 72-93V128c0-8.8-7.2-16-16-16H64zM0 128C0 92.7 28.7 64 64 64H576c35.3 0 64 28.7 64 64v61.3c0 11.2-12.8 18.7-24 18.7c-26.5 0-48 21.5-48 48s21.5 48 48 48c11.2 0 24 7.5 24 18.7V384c0 35.3-28.7 64-64 64H64c-35.3 0-64-28.7-64-64V128zm432 16a16 16 0 1 1 0 32 16 16 0 1 1 0-32zm0 64a16 16 0 1 1 0 32 16 16 0 1 1 0-32zm-16 80a16 16 0 1 1 32 0 16 16 0 1 1 -32 0zm16 48a16 16 0 1 1 0 32 16 16 0 1 1 0-32zM186.7 224l-23.2-69.5c-1.7-5.2 2.1-10.5 7.6-10.5h31.1c8.5 0 16.4 4.5 20.7 11.9L262.7 224h40.3c16.1 0 31.5 6.4 42.8 17.7c7.9 7.9 7.9 20.7 0 28.5C334.4 281.6 319 288 302.9 288H262.7l-39.7 68.1c-4.3 7.4-12.2 11.9-20.7 11.9H171.1c-5.5 0-9.3-5.4-7.6-10.5L186.7 288H144l-19.2 25.6c-3 4-7.8 6.4-12.8 6.4H98.2c-5.2 0-9-4.9-7.8-9.9L103 259.9c.6-2.5 .6-5.2 0-7.8L90.5 201.9c-1.3-5 2.6-9.9 7.8-9.9H112c5 0 9.8 2.4 12.8 6.4L144 224h42.7z"/></svg>

<svg xmlns="http://www.w3.org/2000/svg" viewBox="0 0 640 512"><!--! Font Awesome Pro 6.2.0 by @fontawesome - https://fontawesome.com License - https://fontawesome.com/license (Commercial License) Copyright 2022 Fonticons, Inc. --><path d="M416 160C416 151.2 423.2 144 432 144C440.8 144 448 151.2 448 160C448 168.8 440.8 176 432 176C423.2 176 416 168.8 416 160zM416 224C416 215.2 423.2 208 432 208C440.8 208 448 215.2 448 224C448 232.8 440.8 240 432 240C423.2 240 416 232.8 416 224zM448 288C448 296.8 440.8 304 432 304C423.2 304 416 296.8 416 288C416 279.2 423.2 272 432 272C440.8 272 448 279.2 448 288zM416 352C416 343.2 423.2 336 432 336C440.8 336 448 343.2 448 352C448 360.8 440.8 368 432 368C423.2 368 416 360.8 416 352zM186.7 224L163.5 154.5C161.8 149.3 165.6 144 171.1 144H202.2C210.8 144 218.6 148.5 222.9 155.9L262.7 224H302.9C318.1 224 334.4 230.4 345.7 241.7C353.6 249.6 353.6 262.4 345.7 270.3C334.4 281.6 318.1 288 302.9 288H262.7L222.9 356.1C218.6 363.5 210.8 368 202.2 368H171.1C165.6 368 161.8 362.6 163.5 357.5L186.7 288H143.1L124.8 313.6C121.8 317.6 117 320 111.1 320H98.25C93.04 320 89.22 315.1 90.48 310.1L103 259.9C103.7 257.3 103.7 254.7 103 252.1L90.48 201.9C89.22 196.9 93.04 192 98.25 192H111.1C117 192 121.8 194.4 124.8 198.4L143.1 224L186.7 224zM0 128C0 92.65 28.65 64 64 64H576C611.3 64 640 92.65 640 128V189.3C640 200.5 627.2 208 616 208C589.5 208 568 229.5 568 256C568 282.5 589.5 304 616 304C627.2 304 640 311.5 640 322.7V384C640 419.3 611.3 448 576 448H64C28.65 448 0 419.3 0 384V128zM64 112C55.16 112 48 119.2 48 128V384C48 392.8 55.16 400 64 400H576C584.8 400 592 392.8 592 384V348.1C550.6 338.3 520 300.7 520 256C520 211.3 550.6 173.7 592 163V128C592 119.2 584.8 112 576 112H64z"/></svg>
